src/svg/logo.svg

<?xml version="1.0" encoding="UTF-8"?><svg id="Layer_2" xmlns="http://www.w3.org/2000/svg" xmlns:xlink="http://www.w3.org/1999/xlink" viewBox="0 0 936.04 818.02"><defs><style>.cls-1{fill:#fff;}.cls-2{fill:#1a1a1a;}.cls-3{fill:url(#linear-gradient);}</style><linearGradient id="linear-gradient" x1="338.8" y1="686.72" x2="645.56" y2="-70.39" gradientUnits="userSpaceOnUse"><stop offset="0" stop-color="#fff"/><stop offset="1" stop-color="pink"/></linearGradient></defs><g id="Layer_1-2"><path class="cls-2" d="M398.66,818.02c-21.12,0-41.39-3.8-59.68-11.1l-2.97,11.1H56.27L0,738.7,107.84,336.24l-42.71-60.21L139.09,0h159.9c44.24,0,79.68,11.64,105.6,34.63C437.06,12.81,474.66,.93,511.96,.93h226.03c46.19,0,88.07,18.45,116.29,50.91l5.13,6.25c.12,.16,.25,.32,.37,.48,1.73,2.26,3.44,4.65,5.3,7.45,25.66,35.99,42.35,56.24,60.79,93.02,11.7,29.99,13.45,64.09,4.49,97.55l-112.21,418.76c-22.51,84-97.45,142.66-182.25,142.66h-237.24Z"/><path class="cls-3" d="M895.39,138.11h.08s-43.79-61.58-43.79-61.58l-.03,.03c-1.7-2.6-3.46-5.15-5.36-7.63-24.86-32.4-64.33-50.98-108.29-50.98h-226.03c-39.59,0-78.15,14.69-109.15,38.99-23.13-26.5-58.01-39.93-103.81-39.93H152.14l-68.52,255.7,42.71,60.21L18.5,735.37l46.56,65.64H322.96l4.94-18.44c20.22,12.03,44.3,18.44,70.76,18.44h237.24c77.11,0,145.3-53.48,165.82-130.06l112.21-418.76c10.97-40.94,4.17-82.23-18.54-114.08Z"/><path d="M846.28,68.93c-24.86-32.4-64.33-50.98-108.29-50.98h-226.03c-39.59,0-78.15,14.69-109.15,38.99-23.13-26.5-58.01-39.93-103.81-39.93H152.14l-68.52,255.7h58.84L18.5,735.37H276.4l4.94-18.44c20.22,12.03,44.3,18.44,70.76,18.44h237.24c77.11,0,145.3-53.48,165.82-130.06l112.21-418.76c11.38-42.46,3.69-85.33-21.09-117.63Z"/><path d="M892.84,134.56c-24.86-32.4-64.33-50.98-108.29-50.98h-226.03c-39.59,0-78.15,14.69-109.15,38.99-23.13-26.5-58.01-39.93-103.81-39.93H198.7l-68.52,255.7h58.84l-123.97,462.66H322.96l4.94-18.44c20.22,12.03,44.3,18.44,70.76,18.44h237.24c77.11,0,145.3-53.48,165.82-130.06l112.21-418.76c11.38-42.46,3.69-85.33-21.09-117.63Z"/><g><path class="cls-2" d="M327.34,121.25h-92.47l-30.53,113.95h58.84l-123.97,462.66h111.15L380.34,212.78c16.27-60.71,7.71-91.53-53-91.53Z"/><path class="cls-2" d="M766.34,122.19h-226.04c-44.82,0-91.46,34.56-103.45,79.38l-112.21,418.76c-12.02,44.85,10.97,77.54,55.82,77.54h237.24c44.82,0,85.33-32.69,97.35-77.54l112.21-418.76c11.99-44.82-16.1-79.38-60.92-79.38Zm-295.35,197.69c7.31-27.3,35.35-49.41,62.65-49.41s43.52,22.11,36.2,49.41c-7.31,27.3-35.38,49.44-62.68,49.44s-43.49-22.14-36.17-49.44Zm40.6,159.95l62.94-66.85,14.26,66.85h-77.2Zm218.13-159.95c-7.31,27.3-35.38,49.44-62.68,49.44s-43.49-22.14-36.17-49.44c7.31-27.3,35.38-49.41,62.68-49.41s43.49,22.11,36.17,49.41Z"/></g><g><path class="cls-1" d="M298.99,87.89h-92.47l-30.53,113.95h58.84l-123.97,462.66h111.15L351.99,179.42c16.27-60.71,7.71-91.53-53-91.53Z"/><path class="cls-1" d="M737.99,88.83h-226.04c-44.82,0-91.46,34.56-103.45,79.38l-112.21,418.76c-12.02,44.85,10.97,77.54,55.82,77.54h237.24c44.82,0,85.33-32.69,97.35-77.54l112.21-418.76c11.99-44.82-16.1-79.38-60.92-79.38Zm-36.63,197.69c-7.31,27.3-35.38,49.44-62.68,49.44s-43.49-22.14-36.17-49.44c7.31-27.3,35.38-49.41,62.68-49.41s43.49,22.11,36.17,49.41Zm-258.72,0c7.31-27.3,35.35-49.41,62.65-49.41s43.52,22.11,36.2,49.41c-7.31,27.3-35.38,49.44-62.68,49.44s-43.49-22.14-36.17-49.44Zm40.6,159.95l62.94-66.85,14.26,66.85h-77.2Z"/></g><polygon points="18.5 735.37 65.06 801.01 115.48 713.64 18.5 735.37"/><polygon points="83.63 272.71 130.18 338.35 173.41 248.68 140.97 237.1 83.63 272.71"/><polygon points="851.67 76.53 895.47 138.11 846.66 132.31 832.76 92.85 851.67 76.53"/></g></svg>

<svg xmlns="http://www.w3.org/2000/svg" xmlns:xlink="http://www.w3.org/1999/xlink" viewBox="0 0 936.04 818.02"><defs><style>.cls-1{fill:#c18794;}.cls-2{fill:url(#linear-gradient);}.cls-3{fill:#492833;}.cls-4{fill:#fff;}</style><linearGradient id="linear-gradient" x1="338.8" y1="686.72" x2="645.56" y2="-70.39" gradientUnits="userSpaceOnUse"><stop offset="0" stop-color="#fff"/><stop offset="1" stop-color="pink"/></linearGradient></defs><g id="Layer_2" data-name="Layer 2"><g id="Layer_1-2" data-name="Layer 1"><path class="cls-1" d="M398.66,818A161,161,0,0,1,339,806.92L336,818H56.27L0,738.7,107.84,336.24,65.13,276l74-276H299c44.24,0,79.68,11.64,105.6,34.63C437.06,12.81,474.66.93,512,.93H738c46.19,0,88.07,18.45,116.29,50.91l5.13,6.25.37.48c1.73,2.26,3.43,4.65,5.29,7.46,25.66,36,42.35,56.24,60.8,93,11.69,30,13.45,64.09,4.49,97.55L818.15,675.36C795.64,759.36,720.7,818,635.9,818Z"/><path class="cls-2" d="M895.39,138.11h.08l-43.8-61.58,0,0c-1.7-2.59-3.46-5.15-5.36-7.62-24.86-32.4-64.33-51-108.29-51H512c-39.6,0-78.15,14.69-109.15,39C379.67,30.44,344.79,17,299,17H152.14L83.63,272.71l42.71,60.21L18.5,735.37,65.06,801H323l4.94-18.44c20.22,12,44.3,18.44,70.76,18.44H635.9c77.11,0,145.3-53.48,165.82-130L913.93,252.19C924.89,211.25,918.09,170,895.39,138.11Z"/><path d="M846.28,68.93c-24.86-32.4-64.33-51-108.29-51H512c-39.6,0-78.15,14.69-109.15,39C379.67,30.44,344.79,17,299,17H152.14L83.63,272.71h58.84L18.5,735.37H276.4l4.94-18.44c20.22,12,44.3,18.44,70.76,18.44H589.34c77.11,0,145.3-53.48,165.82-130L867.37,186.55C878.74,144.09,871.06,101.22,846.28,68.93Z"/><path d="M892.84,134.56c-24.86-32.4-64.33-51-108.3-51h-226c-39.6,0-78.15,14.69-109.16,39-23.13-26.49-58-39.92-103.81-39.92H198.7l-68.52,255.7H189L65.06,801H323l4.94-18.44c20.22,12,44.3,18.44,70.76,18.44H635.9c77.11,0,145.3-53.48,165.82-130l112.2-418.77C925.3,209.73,917.62,166.86,892.84,134.56Z"/><path class="cls-3" d="M327.34,121.25H234.87l-30.53,114h58.84l-124,462.66H250.36l130-485.08C396.61,152.07,388.05,121.25,327.34,121.25Z"/><path class="cls-3" d="M766.34,122.19h-226c-44.82,0-91.46,34.56-103.45,79.38L324.64,620.33c-12,44.85,11,77.54,55.82,77.54H617.7c44.82,0,85.33-32.69,97.35-77.54L827.26,201.57C839.25,156.75,811.16,122.19,766.34,122.19ZM471,319.88c7.32-27.3,35.36-49.42,62.66-49.42s43.52,22.12,36.2,49.42-35.38,49.44-62.68,49.44S463.67,347.18,471,319.88Zm40.6,160L574.52,413l14.26,66.85ZM729.71,319.88c-7.32,27.3-35.38,49.44-62.68,49.44s-43.49-22.14-36.18-49.44,35.38-49.42,62.68-49.42S737,292.58,729.71,319.88Z"/><path class="cls-4" d="M299,87.89H206.53L176,201.83h58.84l-124,462.67H222L352,179.42C368.26,118.71,359.7,87.89,299,87.89Z"/><path class="cls-4" d="M738,88.83H512c-44.82,0-91.46,34.55-103.45,79.38L296.29,587c-12,44.85,11,77.54,55.82,77.54H589.35c44.82,0,85.33-32.69,97.35-77.54L798.91,168.21C810.91,123.38,782.81,88.83,738,88.83ZM701.36,286.51C694.05,313.81,666,336,638.68,336s-43.49-22.14-36.18-49.44,35.38-49.41,62.69-49.41S708.68,259.21,701.36,286.51Zm-258.72,0C450,259.21,478,237.1,505.29,237.1s43.52,22.11,36.2,49.41S506.11,336,478.81,336,435.32,313.81,442.64,286.51Zm40.59,160,62.94-66.85,14.26,66.85Z"/><polygon points="18.5 735.37 65.06 801.01 115.48 713.64 18.5 735.37"/><polygon points="83.63 272.71 130.19 338.35 173.41 248.68 140.97 237.1 83.63 272.71"/><polygon points="851.67 76.53 895.47 138.12 846.66 132.31 832.76 92.85 851.67 76.53"/></g></g></svg>
